src/Resource_Files/fluent/format-case-titlecase.svg

<svg clip-rule="evenodd" fill-rule="evenodd" stroke-linejoin="round" stroke-miterlimit="2" viewBox="0 0 16 16" xmlns="http://www.w3.org/2000/svg"><g fill="#1abc9c"><path d="m-.057 13.487 3.436-9.942c.087-.273.278-.416.583-.416.291 0 .487.134.591.395.002.005.004.01.005.015l3.411 9.962c.004.011.007.022.01.034.014.037.023.083.023.138 0 .161-.066.305-.221.421-.116.087-.252.133-.408.133-.274 0-.458-.13-.549-.395l-.736-2.121h-4.283l-.721 2.12c-.088.255-.275.396-.581.396-.138 0-.26-.037-.368-.108-.149-.097-.229-.238-.229-.432 0-.084.016-.149.037-.2zm8.032.038c-.01-.032-.025-.056-.041-.076-.016-.019-.032-.033-.044-.044.026.023.061.061.085.12zm-5.78-2.949h3.504l-1.739-5.096z" fill-rule="nonzero"/><path d="m10.047 13.703c-.01.131-.064.251-.171.356-.109.108-.25.168-.425.168-.184 0-.325-.067-.428-.18-.104-.114-.153-.244-.153-.388v-10.417c0-.187.067-.321.171-.414.092-.083.226-.14.41-.14.166 0 .298.05.402.133.126.102.196.24.196.421v4.174c.096-.077.201-.152.313-.223.394-.251.893-.383 1.501-.383.431 0 .836.073 1.215.22.38.146.713.349 1 .605.289.259.519.563.69.912.175.356.262.734.262 1.133v1.733c0 .39-.087.761-.263 1.113-.169.341-.398.646-.685.913-.286.267-.615.479-.988.635-.376.158-.776.238-1.2.238-.542 0-1.029-.121-1.459-.359-.142-.078-.271-.162-.388-.25zm3.804-4.023v1.733c0 .219-.051.432-.151.639-.106.218-.246.411-.42.58-.175.168-.382.304-.62.407-.236.101-.48.152-.734.152-.271 0-.519-.05-.745-.151-.236-.105-.441-.231-.616-.379-.169-.143-.302-.29-.398-.441-.071-.112-.118-.202-.118-.281v-2.259c0-.271.051-.514.157-.729.108-.217.247-.401.418-.55.172-.15.37-.266.592-.347.225-.082.456-.123.694-.123.264 0 .513.05.75.152.241.104.453.239.634.405.175.161.313.349.412.562.096.208.145.418.145.63z"/><path d="m8 15.5c0-.276-.224-.5-.5-.5h-7c-.276 0-.5.224-.5.5s.224.5.5.5h7c.276 0 .5-.224.5-.5z"/></g></svg>

<?xml version="1.0" encoding="UTF-8" standalone="no"?>
<!DOCTYPE svg PUBLIC "-//W3C//DTD SVG 1.1//EN" "http://www.w3.org/Graphics/SVG/1.1/DTD/svg11.dtd">
<svg width="100%" height="100%" viewBox="0 0 16 16" version="1.1" xmlns="http://www.w3.org/2000/svg" xmlns:xlink="http://www.w3.org/1999/xlink" xml:space="preserve" xmlns:serif="http://www.serif.com/" style="fill-rule:evenodd;clip-rule:evenodd;stroke-linejoin:round;stroke-miterlimit:2;">
    <path d="M-0.057,13.487L3.379,3.545C3.466,3.272 3.657,3.129 3.962,3.129C4.253,3.129 4.449,3.263 4.553,3.524C4.555,3.529 4.557,3.534 4.558,3.539L7.969,13.501C7.973,13.512 7.976,13.523 7.979,13.535C7.993,13.572 8.002,13.618 8.002,13.673C8.002,13.834 7.936,13.978 7.781,14.094C7.665,14.181 7.529,14.227 7.373,14.227C7.099,14.227 6.915,14.097 6.824,13.832L6.088,11.711L1.805,11.711L1.084,13.831C0.996,14.086 0.809,14.227 0.503,14.227C0.365,14.227 0.243,14.19 0.135,14.119C-0.014,14.022 -0.094,13.881 -0.094,13.687C-0.094,13.603 -0.078,13.538 -0.057,13.487ZM7.975,13.525C7.965,13.493 7.95,13.469 7.934,13.449C7.918,13.43 7.902,13.416 7.89,13.405C7.916,13.428 7.951,13.466 7.975,13.525ZM2.195,10.576L5.699,10.576L3.96,5.48L2.195,10.576Z" style="fill:rgb(26,188,156);fill-rule:nonzero;"/>
    <path d="M10.047,13.703C10.037,13.834 9.983,13.954 9.876,14.059C9.767,14.167 9.626,14.227 9.451,14.227C9.267,14.227 9.126,14.16 9.023,14.047C8.919,13.933 8.87,13.803 8.87,13.659L8.87,3.242C8.87,3.055 8.937,2.921 9.041,2.828C9.133,2.745 9.267,2.688 9.451,2.688C9.617,2.688 9.749,2.738 9.853,2.821C9.979,2.923 10.049,3.061 10.049,3.242L10.049,7.416C10.145,7.339 10.25,7.264 10.362,7.193C10.756,6.942 11.255,6.81 11.863,6.81C12.294,6.81 12.699,6.883 13.078,7.03C13.458,7.176 13.791,7.379 14.078,7.635C14.367,7.894 14.597,8.198 14.768,8.547C14.943,8.903 15.03,9.281 15.03,9.68L15.03,11.413C15.03,11.803 14.943,12.174 14.767,12.526C14.598,12.867 14.369,13.172 14.082,13.439C13.796,13.706 13.467,13.918 13.094,14.074C12.718,14.232 12.318,14.312 11.894,14.312C11.352,14.312 10.865,14.191 10.435,13.953C10.293,13.875 10.164,13.791 10.047,13.703ZM13.851,9.68L13.851,11.413C13.851,11.632 13.8,11.845 13.7,12.052C13.594,12.27 13.454,12.463 13.28,12.632C13.105,12.8 12.898,12.936 12.66,13.039C12.424,13.14 12.18,13.191 11.926,13.191C11.655,13.191 11.407,13.141 11.181,13.04C10.945,12.935 10.74,12.809 10.565,12.661C10.396,12.518 10.263,12.371 10.167,12.22C10.096,12.108 10.049,12.018 10.049,11.939L10.049,9.68C10.049,9.409 10.1,9.166 10.206,8.951C10.314,8.734 10.453,8.55 10.624,8.401C10.796,8.251 10.994,8.135 11.216,8.054C11.441,7.972 11.672,7.931 11.91,7.931C12.174,7.931 12.423,7.981 12.66,8.083C12.901,8.187 13.113,8.322 13.294,8.488C13.469,8.649 13.607,8.837 13.706,9.05C13.802,9.258 13.851,9.468 13.851,9.68Z" style="fill:rgb(26,188,156);"/>
    <path d="M8,15.5C8,15.224 7.776,15 7.5,15L0.5,15C0.224,15 0,15.224 0,15.5C0,15.776 0.224,16 0.5,16L7.5,16C7.776,16 8,15.776 8,15.5Z" style="fill:rgb(26,188,156);"/>
</svg>
